X: 39551
T: Teacake, The
R: reel
M: 4/4
K: Adorian
Aedc A2cA|GEE2 GcAG|cedc A2cd|egge aged|
cedc A2cA|GEE2 G2 (3Bcd|e2ge aged|1 cedc A4:|2 cedc A2G2||
|:egge g2eg|aged (3cBA AG|egge g2de|cAAG A4|
egge g2eg|aged (3cBA AG|e2dc AGED|EAcB A4 :|

